icon/pk/download-one.svg

<svg viewBox="0 0 48 48" fill="none" xmlns="http://www.w3.org/2000/svg" height="1em" width="1em">
  <path d="M11.6777 20.271C7.27476 21.3181 4 25.2766 4 30C4 35.5228 8.47715 40 14 40C14.9474 40 15.864 39.8683 16.7325 39.6221" stroke="black" stroke-width="4" stroke-linecap="round" stroke-linejoin="round"/>
  <path d="M36.0547 20.271C40.4577 21.3181 43.7324 25.2766 43.7324 30C43.7324 35.5228 39.2553 40 33.7324 40C32.785 40 31.8684 39.8683 30.9999 39.6221" stroke="black" stroke-width="4" stroke-linecap="round" stroke-linejoin="round"/>
  <path d="M36 20C36 13.3726 30.6274 8 24 8C17.3726 8 12 13.3726 12 20" stroke="black" stroke-width="4" stroke-linecap="round" stroke-linejoin="round"/>
  <path d="M17.0654 30.119L23.9999 37.0764L31.1318 30" stroke="black" stroke-width="4" stroke-linecap="round" stroke-linejoin="round"/>
  <path d="M24 20V33.5382" stroke="black" stroke-width="4" stroke-linecap="round" stroke-linejoin="round"/>
</svg>

<svg width="48" height="48" fill="none" xmlns="http://www.w3.org/2000/svg"><path d="M11.678 20.271C7.275 21.318 4 25.277 4 30c0 5.523 4.477 10 10 10 .947 0 1.864-.132 2.733-.378M36.055 20.271c4.403 1.047 7.677 5.006 7.677 9.729 0 5.523-4.477 10-10 10-.947 0-1.864-.132-2.732-.378M36 20c0-6.627-5.373-12-12-12s-12 5.373-12 12M17.065 30.119 24 37.076 31.132 30M24 20v13.538" stroke="#000" stroke-width="4" stroke-linecap="round" stroke-linejoin="round"/></svg>
